material/.icons/material/currency-inr.svg

<svg xmlns="http://www.w3.org/2000/svg" viewBox="0 0 24 24"><path d="M8 3h10l-1 2h-3.26c.48.58.84 1.26 1.05 2H18l-1 2h-2a5.558 5.558 0 01-4.8 4.96V14h-.7l6 7H13l-6-7v-2h2.5c1.76 0 3.22-1.3 3.46-3H7l1-2h4.66C12.1 5.82 10.9 5 9.5 5H7l1-2z"/></svg>

<?xml version="1.0" encoding="UTF-8"?><!DOCTYPE svg PUBLIC "-//W3C//DTD SVG 1.1//EN" "http://www.w3.org/Graphics/SVG/1.1/DTD/svg11.dtd"><svg xmlns="http://www.w3.org/2000/svg" xmlns:xlink="http://www.w3.org/1999/xlink" version="1.1" id="mdi-currency-inr" width="24" height="24" viewBox="0 0 24 24"><path d="M8,3H18L17,5H13.74C14.22,5.58 14.58,6.26 14.79,7H18L17,9H15C14.75,11.57 12.74,13.63 10.2,13.96V14H9.5L15.5,21H13L7,14V12H9.5V12C11.26,12 12.72,10.7 12.96,9H7L8,7H12.66C12.1,5.82 10.9,5 9.5,5H7L8,3Z" /></svg>
